X:1
T:Title
%%score { 1 | 2 }
L:1/8
Q:1/4=90
M:6/8
K:D
V:1 treble nm="Grand Piano"
V:2 bass 
V:1
 [Fd][Fd][Fd] [FA][FA][FA] | BBB [FA]3 | FFF [CA][CG][CE] | D6 | [Fd][Fd][Fd] [FA][FA][FA] | %5
w: J.~Lincoln~Hall * * * * *|||||
 BBB [FA]3 | FFF [CA][CG][CE] | D6 | [Fd]3 [Ac]2 [GB] | [GB][FA][FA] [FA]3 | AGG G3 | %11
w: ||||||
 [GB][FA][FA] [FA]3 | [Fd]3 [Ac]2 [GB] | [GB][FA][FA] [FA]3 | ^GGG AcB | [CA]6 | [Fd]3 [Ac]2 [GB] | %17
w: ||||||
 [GB][FA][FA] [FA]3 | AGG G3 | [GB][FA][FA] [FA]3 | [DFd]3 F2 F | AGG d3 | A3 [DF]2 [CE] | D6 |] %24
w: |||||||
V:2
 [D,A,][D,A,][D,A,] [D,D][D,D][D,D] | [G,DG][G,DG][G,DG][K:bass] [D,D]3 | %2
 [D,A,D][D,A,D][D,A,D] [A,,A,][A,,E,][A,,G,] | [D,F,]6 | [D,A,][D,A,][D,A,] [D,D][D,D][D,D] | %5
 [G,DG][G,DG][G,DG][K:bass] [D,D]3 | [D,A,D][D,A,D][D,A,D] [A,,A,][A,,E,][A,,G,] | [D,F,]6 | %8
 [D,A,]3 [D,D]2 [D,D] | [D,D][D,D][D,D] [D,D]3 | [A,CE][A,CE][A,CE] [A,CE]3 | %11
 [D,D][D,D][D,D] [D,D]3 | [D,A,]3 [D,D]2 [D,D] | [D,D][D,D][D,D] [D,D]3 | %14
 [E,B,E][E,B,E][E,B,E] [E,CE][E,A,E][E,^G,D] | [A,,A,]6 | [D,A,]3 [D,D]2 [D,D] | %17
 [D,D][D,D][D,D] [D,D]3 | [A,CE][A,CE][A,CE] [A,CE]3 | [D,D][D,D][D,D] [D,D]3 | %20
 D,F,A,[K:treble] [=CD]2 [CD] | [=CDF][B,D][B,D] [^A,D=F]3 | [A,DF]3[K:bass] [A,,A,]2 [A,,G,] | %23
 [D,F,]6 |] %24

